Origami/16x16/apps/aegisub.svg

<svg width="16" height="16" version="1" xmlns="http://www.w3.org/2000/svg">
 <path d="m4.0495259 1.2292499a1.7739876 1.8193311 86.170725 0 0 -0.7048566 0.6706978l-3.0993742 5.2255015a1.7739876 1.8193311 86.170725 0 0 -0.003048 1.7743649l3.0815524 5.2156719a1.7739876 1.8193311 86.170725 0 0 1.5738842 0.884509l6.1808062-0.01003a1.7739876 1.8193311 86.170725 0 0 1.57694 -0.889682l3.099294-5.2256367a1.7739876 1.8193311 86.170725 0 0 3e-3 -1.7743649l-3.081504-5.2156736a1.7739876 1.8193311 86.170725 0 0 -1.574033 -0.8846051l-6.1807268 0.0101673a1.7739876 1.8193311 86.170725 0 0 -0.8722212 0.2190619z" style="fill:#ff4141"/>
 <path d="m4.326636 1.1108142a1.7739876 1.8193311 86.170725 0 0 -0.27753 0.1187294 1.7739876 1.8193311 86.170725 0 0 -0.7046131 0.6706413l-3.0989592 5.2255336a1.7739876 1.8193311 86.170725 0 0 -0.002975 1.7737456l3.0811007 5.2161789a1.7739876 1.8193311 86.170725 0 0 1.5736613 0.884355l6.1808053-0.01007a1.7739876 1.8193311 86.170725 0 0 1.245536 -0.484272l-7.997026-13.394842z" style="opacity:.2"/>
 <path d="m11.792412 1.1345601-7.9828893 13.371092s-0.051082 0.07627-0.0625 0.09282a1.7739876 1.8193311 86.170725 0 0 1.1502978 0.401522l6.1808053-0.01007a1.7739876 1.8193311 86.170725 0 0 1.577381 -0.889391l3.098959-5.2255353a1.7739876 1.8193311 86.170725 0 0 3e-3 -1.774465l-3.0811248-5.2161784a1.7739876 1.8193311 86.170725 0 0 -0.883929 -0.7497942z" style="opacity:.2"/>
 <path d="m0.00148602 7.9999989a1.7739876 1.8193311 86.170725 0 0 0.24107153 0.8994652l3.0811018 5.2161789a1.7739876 1.8193311 86.170725 0 0 1.5736613 0.884355l6.1808053-0.01007a1.7739876 1.8193311 86.170725 0 0 1.577381 -0.889391l3.098959-5.2255353a1.7739876 1.8193311 86.170725 0 0 0.244048 -0.8749998h-15.997028z" style="opacity:.2"/>
 <path d="M 8.0000001,5 C 4.6250001,5 2.0000002,7.3333332 2.0000002,8.0546873 2.0000002,8.9999998 4.6250002,11 8.0000001,11 11.375,11 14,8.6666666 14,8.0546873 14,7.3333332 11.375,5 8.0000001,5 Z" style="fill:#ffffff"/>
 <circle cx="8" cy="8" r="3" style="fill:#1b87e6"/>
 <circle cx="8" cy="8" r="1" style="fill:#3f3f3f"/>
</svg>

<svg xmlns="http://www.w3.org/2000/svg" width="16" height="16" version="1">
 <path style="fill:#ff4141" d="M 4.0495259,1.2292499 A 1.7739876,1.8193311 86.170725 0 0 3.3446693,1.8999477 L 0.24529515,7.1254492 a 1.7739876,1.8193311 86.170725 0 0 -0.003048,1.7743649 L 3.3237996,14.115486 a 1.7739876,1.8193311 86.170725 0 0 1.5738842,0.884509 l 6.1808062,-0.01003 a 1.7739876,1.8193311 86.170725 0 0 1.57694,-0.889682 l 3.099294,-5.2256367 a 1.7739876,1.8193311 86.170725 0 0 0.003,-1.7743649 L 12.67622,1.8846078 A 1.7739876,1.8193311 86.170725 0 0 11.102187,1.0000027 L 4.9214602,1.01017 A 1.7739876,1.8193311 86.170725 0 0 4.049239,1.2292319 Z"/>
 <path style="opacity:0.2" d="M 4.326636,1.1108142 A 1.7739876,1.8193311 86.170725 0 0 4.049106,1.2295436 1.7739876,1.8193311 86.170725 0 0 3.3444929,1.9001849 L 0.2455337,7.1257185 a 1.7739876,1.8193311 86.170725 0 0 -0.002975,1.7737456 L 3.3236594,14.115643 a 1.7739876,1.8193311 86.170725 0 0 1.5736613,0.884355 l 6.1808053,-0.01007 a 1.7739876,1.8193311 86.170725 0 0 1.245536,-0.484272 L 4.326636,1.1108142 Z"/>
 <path style="opacity:0.2" d="M 11.792412,1.1345601 3.8095227,14.505652 c 0,0 -0.051082,0.07627 -0.0625,0.09282 a 1.7739876,1.8193311 86.170725 0 0 1.1502978,0.401522 l 6.1808053,-0.01007 a 1.7739876,1.8193311 86.170725 0 0 1.577381,-0.889391 l 3.098959,-5.2255353 a 1.7739876,1.8193311 86.170725 0 0 0.003,-1.774465 L 12.676341,1.8843543 A 1.7739876,1.8193311 86.170725 0 0 11.792412,1.1345601 Z"/>
 <path style="opacity:0.2" d="M 0.00148602,7.9999989 A 1.7739876,1.8193311 86.170725 0 0 0.24255755,8.8994641 L 3.3236594,14.115643 a 1.7739876,1.8193311 86.170725 0 0 1.5736613,0.884355 l 6.1808053,-0.01007 a 1.7739876,1.8193311 86.170725 0 0 1.577381,-0.889391 l 3.098959,-5.2255353 a 1.7739876,1.8193311 86.170725 0 0 0.244048,-0.8749998 l -15.99702798,0 z"/>
 <path style="fill:#ffffff" d="M 8.0000001,5 C 4.6250001,5 2.0000002,7.3333332 2.0000002,8.0546873 2.0000002,8.9999998 4.6250002,11 8.0000001,11 11.375,11 14,8.6666666 14,8.0546873 14,7.3333332 11.375,5 8.0000001,5 Z"/>
 <circle style="fill:#1b87e6" cx="8" cy="8" r="3"/>
 <circle style="fill:#3f3f3f" cx="8" cy="8" r="1"/>
</svg>
